public/assets/logos/software/affinity-publisher.svg

<svg fill="none" height="10" viewBox="0 0 10 10" width="10" xmlns="http://www.w3.org/2000/svg" xmlns:xlink="http://www.w3.org/1999/xlink"><radialGradient id="a" cx="0" cy="0" gradientTransform="matrix(10.1393 0 0 10.1392 7.25544 -.871682)" gradientUnits="userSpaceOnUse" r="1"><stop offset="0" stop-color="#ffae71"/><stop offset="1" stop-color="#ff9350"/></radialGradient><clipPath id="b"><path d="m0 0h10v10h-10z"/></clipPath><g clip-path="url(#b)" clip-rule="evenodd" fill-rule="evenodd"><path d="m10 .976561c0-.538984-.43757-.976561-.97655-.976561h-8.046887c-.538985 0-.976563.437577-.976563.976561v8.046859c0 .53899.437578.97656.976563.97656h8.046887c.53898 0 .97655-.43757.97655-.97656z" fill="#891b26"/><path d="m4.55221 9.26756-2.51758-4.35886-1.302147 2.25445v1.71379c0 .21559.175.39062.390627.39062zm1.83584 0h-1.45156s-1.88037-3.2567-2.51035-4.34625c-.12354-.21365-.12354-.47697-.0001-.69066.22783-.39422.52656-.91123.52656-.91123zm1.83585 0h-1.45157l-3.60635-6.31764.70449-1.21963zm1.04375-1.3713v.98068c0 .21559-.175.39062-.39063.39062h-.26885l-4.54561-7.8699.38428-.665239h.68311zm-.39063-7.163839h-3.36289l3.75352 6.498579v-6.10795c0-.2156-.175-.390629-.39063-.390629z" fill="url(#a)"/></g></svg>

<svg width="10" height="10" viewBox="0 0 10 10" fill="none" xmlns="http://www.w3.org/2000/svg">
<g clip-path="url(#clip0_86_641)">
<path fill-rule="evenodd" clip-rule="evenodd" d="M10 0.976561C10 0.437577 9.56243 0 9.02345 0H0.976563C0.437578 0 0 0.437577 0 0.976561V9.02342C0 9.56241 0.437578 9.99998 0.976563 9.99998H9.02345C9.56243 9.99998 10 9.56241 10 9.02342V0.976561Z" fill="#891B26"/>
<path fill-rule="evenodd" clip-rule="evenodd" d="M4.55221 9.26756L2.03463 4.9087L0.732483 7.16315V8.87694C0.732483 9.09253 0.907483 9.26756 1.12311 9.26756H4.55221ZM6.38805 9.26756H4.93649C4.93649 9.26756 3.05612 6.01086 2.42614 4.92131C2.3026 4.70766 2.3026 4.44434 2.42604 4.23065C2.65387 3.83643 2.9526 3.31942 2.9526 3.31942L6.38805 9.26756ZM8.2239 9.26756H6.77233L3.16598 2.94992L3.87047 1.73029L8.2239 9.26756ZM9.26765 7.89626V8.87694C9.26765 9.09253 9.09265 9.26756 8.87702 9.26756H8.60817L4.06256 1.39766L4.44684 0.732421H5.12995L9.26765 7.89626ZM8.87702 0.732421H5.51413L9.26765 7.231V1.12305C9.26765 0.90745 9.09265 0.732421 8.87702 0.732421Z" fill="url(#paint0_radial_86_641)"/>
</g>
<defs>
<radialGradient id="paint0_radial_86_641" cx="0" cy="0" r="1" gradientUnits="userSpaceOnUse" gradientTransform="translate(7.25544 -0.871682) scale(10.1393 10.1392)">
<stop stop-color="#FFAE71"/>
<stop offset="1" stop-color="#FF9350"/>
</radialGradient>
<clipPath id="clip0_86_641">
<rect width="10" height="10" fill="white"/>
</clipPath>
</defs>
</svg>
